X:1
T:Stoke Newington, 87.87 D
T:Stoke Newington, 87.87 D
T:F. W. Messe, 1888
T:Public Domain Courtesy of the Cyber Hymnal™
C:F. W. Messe, 1888
Z:Public Domain
Z:Courtesy of the Cyber Hymnal™
%%score ( 1 2 ) ( 3 4 )
L:1/8
Q:1/4=110
M:9/8
K:G
V:1 treble 
V:2 treble 
V:3 bass 
V:4 bass 
V:1
 (DG)[Dc] | [DB]3 [DG]3 (AG)[CE] | D3 [DG]3 (DG)[DA] | [GB]3 [DB]3 (BA)[=CE] | A6 (DG)[Dc] | %5
 [DB]3 [DG]3 (AG)[CE] | D3 [DG]3 (GB)[ce] | [Bd]3 [GB]3 (BG)[FA] | G6 ([Bd][GB])[ce] | %9
 [Bd]3 [DB]3 (BG)[Ec] | [GB]3 [FA]3 ([FA][GB])[Ac] | [Ac]3 [FA]3 (Bc)[Ge] | [Gd]6 (DG)[Dc] | %13
 [DB]3 [DG]3 (AG)[CE] | D3 [DG]3 (GB)[ce] | [Bd]3 [GB]3 (BG)[DA] | [DG]6 |] %17
V:2
 D2 x | x6 C2 x | D3 D2 x4 | x6 ^C2 x | (D3 C3) D2 x | x6 C2 x | D3 G2 x4 | x6 G2 x | G6 x3 | %9
 x6 D2 x | x9 | x6 G2 x | x6 D2 x | x6 C2 x | D3 G2 x4 | x6 G2 x | x6 |] %17
V:3
 G,2 G, | [G,,G,]3 [B,,G,]3 [C,G,]2 [C,G,] | [G,B,]3 [G,B,]3 [G,B,]2 [G,B,] | %3
 [G,D]3 [G,D]3 A,2 [A,,A,] | [D,F,]6 [G,B,]2 [G,B,] | [G,,G,]3 [B,,G,]3 [C,G,]2 [C,G,] | %6
 [G,B,]3 [G,B,]3 [G,D]2 [G,D] | [G,D]3 [G,D]3 (DB,)[D,C] | [G,,B,]6 [G,D]2 [G,D] | %9
 G,3 G,3 [G,B,]2 G, | [D,D]3 [D,D]3 [D,D]2 [D,D] | [D,D]3 [D,D]3 [G,D]2 [G,D] | %12
 [G,B,]6 [G,B,]2 [G,B,] | [G,,G,]3 [B,,G,]3 [C,G,]2 [C,G,] | [G,B,]3 [G,B,]3 [G,D]2 [G,D] | %15
 [G,D]3 [G,D]3 (DB,)[D,C] | [G,,B,]6 |] %17
V:4
 G,2 G, | x9 | x9 | x6 A,2 x | x9 | x9 | x9 | x6 D,2 x | x9 | G,3 G,3 G, x2 | x9 | x9 | x9 | x9 | %14
 x9 | x6 D,2 x | x6 |] %17

